X:1
T:Title
%%score [ ( 1 2 ) ( 3 4 ) ]
L:1/8
Q:1/4=240
M:4/4
K:C
V:1 treble nm="Midi_74"
V:2 treble 
V:3 bass nm="Midi_74"
V:4 bass 
V:1
 G8 | A4 c4 | e8 || B8 | c4 E2 F2 | G4 G4 |"^G. A. MacFarren\n(1813-1887)" G8 |] %7
V:2
 E8 | F4 F4 | G8 || G8 | G4 C4 | D4 D4 | E8 |] %7
V:3
 C8 | C4 C4 | C8 || D8 | C4 C4 | C4 B,4 | C8 |] %7
V:4
 C,8 | F,4 A,4 | C8 || G,8 | E,4 A,4 | G,4 G,4 | C,8 |] %7

